X:21
T:Go to the Devel and Shake your Self  
O:No 21  Pages 8-9 William Clarke of Feltwell  MS 1858
N:AS written
N:No time signature given.
N:Key uncertain, (D is commonly used)
N:Notes appear to have 'slipped' down.
N:Dot added to crochet in bar 8
I:abc2nwc
L:1/8
K:D
Gcc cBA|GAG GFG|Gcc c2d|ecA A3|
Gcc cBA|GAG GFG|cec dfd|dcc"^*"c3|
fec cBc|AGG G3|gfd dcd|cAA A3|
Acc cBA|GAA AFA|ced dfd|edd d2:|

